public/images/footer-whatsapp.svg

<svg width="32" height="32" viewBox="0 0 32 32" fill="none" xmlns="http://www.w3.org/2000/svg">
<path id="Vector" d="M27.3367 4.65607C25.8622 3.17465 24.1062 2.00003 22.1709 1.20066C20.2356 0.401299 18.1597 -0.00682105 16.0643 8.6232e-05C7.28442 8.6232e-05 0.128643 7.12007 0.128643 15.856C0.128643 18.656 0.868342 21.376 2.25126 23.776L0 32L8.44221 29.792C10.7739 31.056 13.395 31.728 16.0643 31.728C24.8442 31.728 32 24.608 32 15.872C32 11.6321 30.3437 7.64807 27.3367 4.65607ZM16.0643 29.04C13.6844 29.04 11.3528 28.4 9.31055 27.2L8.82814 26.912L3.81106 28.224L5.14573 23.36L4.82412 22.864C3.50158 20.7633 2.79948 18.3349 2.79799 15.856C2.79799 8.59206 8.74774 2.67208 16.0482 2.67208C19.5859 2.67208 22.9146 4.04808 25.407 6.54407C26.6414 7.76625 27.6196 9.22013 28.2848 10.8214C28.9501 12.4226 29.2892 14.1394 29.2824 15.872C29.3146 23.136 23.3648 29.04 16.0643 29.04ZM23.3327 19.184C22.9307 18.992 20.9688 18.032 20.6151 17.888C20.2452 17.76 19.9879 17.696 19.7146 18.08C19.4412 18.48 18.6854 19.376 18.4603 19.632C18.2352 19.904 17.994 19.936 17.592 19.728C17.1899 19.536 15.9035 19.104 14.392 17.76C13.202 16.704 12.4141 15.408 12.1729 15.008C11.9477 14.608 12.1407 14.4 12.3497 14.192C12.5266 14.016 12.7518 13.728 12.9447 13.5041C13.1377 13.2801 13.2181 13.1041 13.3467 12.8481C13.4754 12.5761 13.4111 12.3521 13.3146 12.1601C13.2181 11.9681 12.4141 10.0161 12.0925 9.21606C11.7709 8.44806 11.4332 8.54406 11.192 8.52806H10.4201C10.1467 8.52806 9.72864 8.62406 9.35879 9.02406C9.00502 9.42406 7.97588 10.3841 7.97588 12.3361C7.97588 14.288 9.40703 16.176 9.6 16.432C9.79296 16.704 12.4141 20.704 16.402 22.416C17.3508 22.832 18.0905 23.072 18.6693 23.248C19.6181 23.552 20.4864 23.504 21.1779 23.408C21.9497 23.296 23.5417 22.448 23.8633 21.52C24.201 20.592 24.201 19.808 24.0884 19.632C23.9759 19.456 23.7347 19.376 23.3327 19.184Z" fill="white"/>
</svg>

<svg width="32" height="32" fill="none" xmlns="http://www.w3.org/2000/svg"><path d="M27.337 4.656a15.796 15.796 0 0 0-5.166-3.455A15.86 15.86 0 0 0 16.064 0C7.284 0 .13 7.12.13 15.855c0 2.8.74 5.52 2.122 7.92L0 32l8.442-2.208a16.003 16.003 0 0 0 7.622 1.936c8.78 0 15.936-7.12 15.936-15.856 0-4.24-1.656-8.224-4.663-11.216zM16.064 29.04c-2.38 0-4.711-.64-6.753-1.84l-.483-.288-5.017 1.312 1.335-4.864-.322-.496a13.167 13.167 0 0 1-2.026-7.008c0-7.264 5.95-13.184 13.25-13.184 3.538 0 6.867 1.376 9.359 3.872a13.082 13.082 0 0 1 2.878 4.277 13.029 13.029 0 0 1 .997 5.051c.033 7.264-5.917 13.168-13.218 13.168zm7.269-9.856c-.402-.192-2.364-1.152-2.718-1.296-.37-.128-.627-.192-.9.192-.274.4-1.03 1.296-1.255 1.552-.225.272-.466.304-.868.096-.402-.192-1.688-.624-3.2-1.968-1.19-1.056-1.978-2.352-2.22-2.752-.224-.4-.031-.608.178-.816.177-.176.402-.464.595-.688.193-.224.273-.4.402-.656.128-.272.064-.496-.032-.688-.097-.192-.9-2.144-1.223-2.944-.321-.768-.659-.672-.9-.688h-.772c-.273 0-.691.096-1.061.496-.354.4-1.383 1.36-1.383 3.312 0 1.952 1.431 3.84 1.624 4.096.193.272 2.814 4.272 6.802 5.984.949.416 1.688.656 2.267.832.95.304 1.817.256 2.509.16.772-.112 2.364-.96 2.685-1.888.338-.928.338-1.712.225-1.888-.112-.176-.353-.256-.755-.448z" fill="#fff"/></svg>
